swiss/communes/0683.svg

<?xml version="1.0" encoding="UTF-8" standalone="no"?>
<!-- Created with Inkscape (http://www.inkscape.org/) -->
<svg
   xmlns:svg="http://www.w3.org/2000/svg"
   xmlns="http://www.w3.org/2000/svg"
   xmlns:xlink="http://www.w3.org/1999/xlink"
   version="1.0"
   width="603"
   height="763"
   id="svg20">
  <defs
     id="defs29">
    <linearGradient
       id="linearGradient2893">
      <stop
         style="stop-color:white;stop-opacity:0.3137255"
         offset="0"
         id="stop2895" />
      <stop
         style="stop-color:white;stop-opacity:0.25098041"
         offset="0.19"
         id="stop2897" />
      <stop
         style="stop-color:#6b6b6b;stop-opacity:0.1254902"
         offset="0.60000002"
         id="stop2901" />
      <stop
         style="stop-color:black;stop-opacity:0.1254902"
         offset="1"
         id="stop2899" />
    </linearGradient>
    <radialGradient
       cx="858.04236"
       cy="579.93323"
       r="300"
       fx="858.04236"
       fy="579.93323"
       id="radialGradient3236"
       xlink:href="#linearGradient2893"
       gradientUnits="userSpaceOnUse"
       gradientTransform="matrix(1.215027,0,0,1.266667,-839.1924,-490.4894)" />
  </defs>
  <desc
     id="desc22">Coat of Arms of Canton of Freiburg (Fribourg)</desc>
  <g
     style="display:inline"
     id="layer1">
    <path
       d="M 1.5,1.49998 L 1.5,460.3679 C 1.5,626.6785 135.81456,761.5 301.49999,761.5 C 467.18543,761.5 601.5,626.6785 601.5,460.3679 L 601.5,1.49998 L 1.5,1.49998 z "
       style="fill:#fcef3c;fill-opacity:1"
       id="path1899" />
  </g>
  <g
     style="opacity:1;display:inline"
     id="layer2">
    <path
       d="M 482.61971,699.24783 C 375.54101,784.65115 211.4007,777.68379 119.60117,699.24783 C 240.60735,615.01539 361.61353,610.68679 482.61971,699.24783 z "
       style="fill:#5ab532;fill-rule:evenodd;stroke:none;stroke-width:1px;stroke-linecap:butt;stroke-linejoin:miter;stroke-opacity:1"
       id="path1930" />
    <path
       d="M 119.33773,699.33732 C 177.18947,659.06671 235.0412,637.05965 292.89293,634.7352 C 356.04738,632.19768 419.20182,653.11635 482.35627,699.33732"
       style="opacity:1;fill:none;fill-rule:evenodd;stroke:black;stroke-width:5;stroke-linecap:butt;stroke-linejoin:miter;stroke-miterlimit:4;stroke-dasharray:none;stroke-opacity:1;display:inline"
       id="path1938" />
    <path
       d="M 302.05799,598.35611 C 325.19687,586.36966 338.68938,569.26359 353.01148,547.71515 C 364.71537,526.53207 369.71095,503.81904 373.5022,478.41925 C 377.27028,457.28926 383.70833,435.60242 418.20923,426.26105 C 435.71948,420.85008 458.073,419.37562 470.73999,408.00568 C 448.43629,385.32805 422.00813,372.94625 397.71851,368.14191 C 406.26072,359.24166 416.61494,348.60204 415.60132,335.35675 C 359.70925,317.16379 334.37825,335.09291 302.05799,343.89859 C 269.73772,335.03889 244.40672,317.10977 188.51465,335.30273 C 187.50103,348.54802 197.85525,359.18764 206.39746,368.08789 C 182.10784,372.89223 155.67968,385.27403 133.37598,407.95166 C 146.04297,419.3216 168.39649,420.79606 185.90674,426.20703 C 220.40764,435.5484 226.84569,457.23524 230.61377,478.36523 C 234.40502,503.76502 239.4006,526.47805 251.10449,547.66113 C 265.42659,569.20957 278.91911,586.36966 302.05799,598.35611 z "
       style="fill:#2b5df2;fill-rule:evenodd;stroke:black;stroke-width:5;stroke-linecap:butt;stroke-linejoin:miter;stroke-miterlimit:4;stroke-dasharray:none;stroke-opacity:1"
       id="path1936" />
    <path
       d="M 470.76577,408.36786 C 421.22954,419.42928 372.4263,428.56651 349.05709,412.58288 C 329.83151,437.43115 320.10132,440.88658 302.03288,447.90548 C 283.96444,440.93022 274.23425,437.47479 255.00867,412.62652 C 231.63946,428.61015 182.83622,419.47292 133.29999,408.4115"
       style="fill:none;fill-rule:evenodd;stroke:black;stroke-width:5;stroke-linecap:butt;stroke-linejoin:miter;stroke-miterlimit:4;stroke-dasharray:none;stroke-opacity:1"
       id="path3713" />
    <path
       d="M 348.86312,412.75128 C 353.34241,422.69796 354.33278,439.98699 347.00033,447.77179 C 328.31757,470.12531 334.94674,492.47882 332.47054,514.83234 C 330.88305,537.25973 332.38686,557.66325 302.03288,587.87564 C 271.6789,557.70689 273.18271,537.30337 271.59522,514.87598 C 269.11902,492.52246 275.74819,470.16895 257.06543,447.81543 C 249.73298,440.03063 250.72335,422.7416 255.20264,412.79492"
       style="fill:none;fill-rule:evenodd;stroke:black;stroke-width:3;stroke-linecap:butt;stroke-linejoin:miter;stroke-miterlimit:4;stroke-dasharray:none;stroke-opacity:1"
       id="path3717" />
    <path
       d="M 302.13885,634.5925 C 348.78069,636.25342 398.5775,633.70694 438.31132,604.92931 C 476.59233,574.52375 504.10058,530.04224 577.93383,546.9728 C 550.26606,482.16113 508.81865,469.22575 457.2789,494.28506 C 430.01385,509.16459 415.84775,529.70779 400.37614,548.55343 C 364.68114,595.46284 354.98485,610.52781 302.13885,610.53693 C 249.29285,610.53527 239.59656,595.4703 203.90156,548.56089 C 188.42995,529.71525 174.26385,509.17205 146.9988,494.29252 C 95.459051,469.23321 54.01164,482.16859 26.343871,546.98026 C 100.17712,530.0497 127.68537,574.53121 165.96638,604.93677 C 205.7002,633.7144 255.49701,636.25342 302.13885,634.5925 z "
       style="fill:#5ab532;fill-rule:evenodd;stroke:black;stroke-width:5;stroke-linecap:butt;stroke-linejoin:miter;stroke-miterlimit:4;stroke-opacity:1"
       id="path1932" />
    <path
       d="M 299.53711,635.2124 C 258.92632,630.67823 218.81798,610.06597 179.20068,573.74023 C 149.65228,547.98576 125.28649,514.08721 76.001953,519.34668"
       style="fill:none;fill-rule:evenodd;stroke:black;stroke-width:3;stroke-linecap:round;stroke-linejoin:miter;stroke-miterlimit:4;stroke-dasharray:none;stroke-opacity:1"
       id="path3732" />
    <path
       d="M 304.74059,635.20494 C 345.35138,630.67077 385.45972,610.05851 425.07702,573.73277 C 454.62542,547.9783 478.99121,514.07975 528.27575,519.33922"
       style="opacity:1;fill:none;fill-rule:evenodd;stroke:black;stroke-width:3;stroke-linecap:round;stroke-linejoin:miter;stroke-miterlimit:4;stroke-dasharray:none;stroke-opacity:1;display:inline"
       id="path6396" />
    <path
       d="M 314.0669,635.2124 L 314.0669,609.87842 C 364.21581,604.83692 371.50664,567.54012 375.91162,547.28857 C 350.38701,564.73287 327.39843,576.05671 315.18457,596.09375 C 323.0083,573.67479 319.43631,547.69346 302.14502,537.22949 C 284.85373,547.69346 281.28174,573.67479 289.10547,596.09375 C 277.97047,576.33807 255.24252,566.21331 228.37842,547.28857 C 232.7834,567.54012 240.07423,604.83692 290.22314,609.87842 L 290.22314,635.2124"
       style="fill:#5ab532;fill-rule:evenodd;stroke:black;stroke-width:5;stroke-linecap:butt;stroke-linejoin:miter;stroke-miterlimit:4;stroke-opacity:1"
       id="path1934" />
    <path
       d="M 303.11023,412.05245 C 304.82972,404.92502 305.61415,395.93789 308.93165,390.73383 C 323.2952,385.53472 322.4392,368.05869 303.11023,367.71788 C 282.93715,367.54586 282.92525,385.52954 297.2888,390.72866 C 300.6063,395.93271 301.39073,404.92502 303.11023,412.05245 z "
       style="fill:black;fill-opacity:1;fill-rule:evenodd;stroke:black;stroke-width:2.99999976;stroke-linecap:butt;stroke-linejoin:round;stroke-miterlimit:4;stroke-dasharray:none;stroke-opacity:1"
       id="path8171" />
    <path
       d="M 1.4902344,304.75293 L 600.56445,304.75293"
       style="fill:none;fill-rule:evenodd;stroke:black;stroke-width:1px;stroke-linecap:butt;stroke-linejoin:miter;stroke-opacity:1"
       id="path9948" />
    <rect
       width="599.07422"
       height="210.12305"
       x="2.2353516"
       y="1.490234"
       style="opacity:1;fill:#e20909;fill-opacity:1;fill-rule:evenodd;stroke:none;stroke-width:15;stroke-linecap:round;stroke-linejoin:round;stroke-miterlimit:4;stroke-dasharray:none;stroke-dashoffset:0;stroke-opacity:1"
       id="rect11777" />
    <path
       d="M 187.60489,26.588598 C 180.1218,46.038183 188.37011,62.049322 202.67221,77.135984 C 213.73163,88.802106 220.99813,101.23453 220.65241,114.59219 C 215.62164,116.47749 210.82438,118.50965 206.19364,120.69649 L 90.610665,69.67509 L 168.2072,145.64272 C 166.81306,146.922 165.45471,148.25165 164.14693,149.56728 C 142.13789,142.97813 121.47736,141.67158 101.7898,144.20257 C 73.958627,147.78049 50.330173,143.90674 25.656906,134.13378 C 41.059495,151.40328 64.039069,158.84469 90.203996,162.79155 C 110.47715,165.84966 128.80209,171.21594 142.78659,180.86053 C 141.26494,184.49472 140.00826,188.1705 139.0527,191.90192 L 3.0035906,210.23695 L 138.74598,227.48886 L 464.92256,228.50306 L 601.01207,210.23278 L 465.22928,192.91613 C 464.85622,191.36406 464.40664,189.81655 463.92976,188.26706 C 486.53025,182.59467 502.5616,173.82763 513.79401,162.78205 C 529.66677,147.17326 550.42505,138.86935 578.26978,134.18509 C 549.00418,129.21188 524.91236,134.69361 502.21165,144.19859 C 484.62361,151.56285 465.97335,156.33815 445.81131,156.0833 C 442.98881,152.76179 439.93704,149.59777 436.66654,146.53895 L 513.438,69.723846 L 398.99238,121.25567 C 397.10546,120.34909 395.16422,119.44665 393.22495,118.59518 C 403.15485,103.97245 405.10552,90.23747 401.29712,77.153365 C 395.91339,58.657071 401.74234,42.953862 416.4476,26.556335 C 390.46232,36.792698 379.36267,52.037824 373.42392,69.426743 C 368.81726,82.915161 360.6018,95.133279 346.04085,104.42616 C 340.59857,103.42168 335.11131,102.54979 329.52439,101.91785 L 302.03318,11.474389 L 275.97696,101.71401 C 273.64161,101.96195 271.31308,102.26072 268.98161,102.57767 C 260.44005,87.567438 247.25499,76.903522 230.63449,69.438473 C 207.14809,58.889588 194.65329,45.093955 187.60489,26.588598 z "
       style="color:black;fill:white;fill-opacity:1;fill-rule:nonzero;stroke:black;stroke-width:4.99999952;stroke-linecap:butt;stroke-linejoin:miter;marker:none;marker-start:none;marker-mid:none;marker-end:none;stroke-miterlimit:4;stroke-dasharray:none;stroke-dashoffset:0;stroke-opacity:1;visibility:visible;display:inline;overflow:visible"
       id="path2140" />
    <rect
       width="598.3291"
       height="92.394531"
       x="1.4902344"
       y="213.84863"
       style="opacity:1;fill:#5ab532;fill-opacity:1;fill-rule:evenodd;stroke:none;stroke-width:15;stroke-linecap:round;stroke-linejoin:round;stroke-miterlimit:4;stroke-dasharray:none;stroke-dashoffset:0;stroke-opacity:1"
       id="rect10840" />
    <path
       d="M 2.0171118,304.49856 L 601.09133,305.00756"
       style="fill:none;fill-rule:evenodd;stroke:black;stroke-width:15.00000381;stroke-linecap:butt;stroke-linejoin:miter;stroke-miterlimit:4;stroke-dasharray:none;stroke-opacity:1"
       id="path9951" />
    <path
       d="M 2.2353554,216.5746 L 601.30956,217.0836"
       style="opacity:1;fill:none;fill-rule:evenodd;stroke:black;stroke-width:15.00000381;stroke-linecap:butt;stroke-linejoin:miter;stroke-miterlimit:4;stroke-dasharray:none;stroke-opacity:1;display:inline"
       id="path10838" />
  </g>
  <g
     style="display:inline"
     id="layer3">
    <path
       d="M 1.5,1.5 L 1.5,460.3679 C 1.5,626.67854 135.81454,761.5 301.49993,761.5 C 467.1854,761.5 601.5,626.67854 601.5,460.3679 L 601.5,1.5 L 1.5,1.5 z "
       style="fill:url(#radialGradient3236);fill-opacity:1"
       id="path2346" />
  </g>
  <g
     style="display:inline"
     id="layer4">
    <path
       d="M 1.5,1.5 L 1.5,460.36794 C 1.5,626.67854 135.81454,761.5 301.49993,761.5 C 467.1854,761.5 601.5,626.67854 601.5,460.36794 L 601.5,1.5 L 1.5,1.5 z "
       style="fill:none;fill-opacity:1;stroke:black;stroke-width:3;stroke-miterlimit:4;stroke-dasharray:none;stroke-opacity:1"
       id="path3239" />
  </g>
</svg>

<svg xmlns="http://www.w3.org/2000/svg" xmlns:xlink="http://www.w3.org/1999/xlink" version="1.0" width="603" height="763"><defs><radialGradient cx="858.042" cy="579.933" r="300" fx="858.042" fy="579.933" id="b" xlink:href="#a" gradientUnits="userSpaceOnUse" gradientTransform="matrix(1.21503 0 0 1.26667 -839.192 -490.49)"/><linearGradient id="a"><stop style="stop-color:white;stop-opacity:.3137255" offset="0"/><stop style="stop-color:white;stop-opacity:.25098041" offset=".19"/><stop style="stop-color:#6b6b6b;stop-opacity:.1254902" offset=".6"/><stop style="stop-color:black;stop-opacity:.1254902" offset="1"/></linearGradient></defs><g style="display:inline"><path d="M1.5 1.5v458.868c0 166.31 134.315 301.132 300 301.132s300-134.822 300-301.132V1.5H1.5z" style="fill:#fcef3c;fill-opacity:1"/></g><g style="opacity:1;display:inline"><path d="M482.62 699.248c-107.079 85.403-271.22 78.436-363.019 0 121.006-84.233 242.013-88.561 363.019 0z" style="fill:#5ab532;fill-rule:evenodd;stroke:none;stroke-width:1px;stroke-linecap:butt;stroke-linejoin:miter;stroke-opacity:1"/><path d="M119.338 699.337c57.851-40.27 115.703-62.277 173.555-64.602 63.154-2.537 126.309 18.381 189.463 64.602" style="opacity:1;fill:none;fill-rule:evenodd;stroke:#000;stroke-width:5;stroke-linecap:butt;stroke-linejoin:miter;stroke-miterlimit:4;stroke-dasharray:none;stroke-opacity:1;display:inline"/><path d="M302.058 598.356c23.139-11.986 36.631-29.092 50.953-50.64 11.704-21.184 16.7-43.897 20.491-69.297 3.768-21.13 10.206-42.817 44.707-52.158 17.51-5.41 39.864-6.885 52.531-18.255-22.304-22.678-48.732-35.06-73.021-39.864 8.542-8.9 18.896-19.54 17.882-32.785-55.892-18.193-81.223-.264-113.543 8.542-32.32-8.86-57.651-26.79-113.543-8.596-1.014 13.245 9.34 23.885 17.882 32.785-24.29 4.804-50.717 17.186-73.021 39.864 12.667 11.37 35.02 12.844 52.53 18.255 34.502 9.341 40.94 31.028 44.708 52.158 3.791 25.4 8.787 48.113 20.49 69.296 14.323 21.549 27.815 38.709 50.954 50.695z" style="fill:#2b5df2;fill-rule:evenodd;stroke:#000;stroke-width:5;stroke-linecap:butt;stroke-linejoin:miter;stroke-miterlimit:4;stroke-dasharray:none;stroke-opacity:1"/><path d="M470.766 408.368c-49.536 11.061-98.34 20.199-121.709 4.215-19.225 24.848-28.956 28.304-47.024 35.322-18.069-6.975-27.799-10.43-47.024-35.278-23.37 15.983-72.173 6.846-121.709-4.216" style="fill:none;fill-rule:evenodd;stroke:#000;stroke-width:5;stroke-linecap:butt;stroke-linejoin:miter;stroke-miterlimit:4;stroke-dasharray:none;stroke-opacity:1"/><path d="M348.863 412.751c4.48 9.947 5.47 27.236-1.863 35.02-18.682 22.354-12.053 44.708-14.53 67.061-1.587 22.428-.083 42.831-30.437 73.044-30.354-30.17-28.85-50.573-30.438-73-2.476-22.354 4.153-44.707-14.53-67.06-7.332-7.785-6.342-25.074-1.862-35.021" style="fill:none;fill-rule:evenodd;stroke:#000;stroke-width:3;stroke-linecap:butt;stroke-linejoin:miter;stroke-miterlimit:4;stroke-dasharray:none;stroke-opacity:1"/><path d="M302.139 634.592c46.642 1.661 96.438-.885 136.172-29.663 38.281-30.405 65.79-74.887 139.623-57.956-27.668-64.812-69.115-77.747-120.655-52.688-27.265 14.88-41.431 35.423-56.903 54.268-35.695 46.91-45.391 61.975-98.237 61.984-52.846-.002-62.542-15.067-98.237-61.976-15.472-18.846-29.638-39.389-56.903-54.268-51.54-25.06-92.987-12.124-120.655 52.687 73.833-16.93 101.341 27.551 139.622 57.957 39.734 28.777 89.531 31.316 136.173 29.655z" style="fill:#5ab532;fill-rule:evenodd;stroke:#000;stroke-width:5;stroke-linecap:butt;stroke-linejoin:miter;stroke-miterlimit:4;stroke-opacity:1"/><path d="M299.537 635.212c-40.61-4.534-80.719-25.146-120.336-61.472-29.549-25.754-53.915-59.653-103.199-54.393" style="fill:none;fill-rule:evenodd;stroke:#000;stroke-width:3;stroke-linecap:round;stroke-linejoin:miter;stroke-miterlimit:4;stroke-dasharray:none;stroke-opacity:1"/><path d="M304.74 635.205c40.611-4.534 80.72-25.146 120.337-61.472 29.548-25.755 53.914-59.653 103.199-54.394" style="opacity:1;fill:none;fill-rule:evenodd;stroke:#000;stroke-width:3;stroke-linecap:round;stroke-linejoin:miter;stroke-miterlimit:4;stroke-dasharray:none;stroke-opacity:1;display:inline"/><path d="M314.067 635.212v-25.334c50.149-5.041 57.44-42.338 61.845-62.59-25.525 17.445-48.514 28.769-60.727 48.806 7.823-22.42 4.251-48.4-13.04-58.865-17.291 10.464-20.863 36.446-13.04 58.865-11.135-19.756-33.862-29.88-60.727-48.805 4.405 20.251 11.696 57.548 61.845 62.59v25.333" style="fill:#5ab532;fill-rule:evenodd;stroke:#000;stroke-width:5;stroke-linecap:butt;stroke-linejoin:miter;stroke-miterlimit:4;stroke-opacity:1"/><path d="M303.11 412.052c1.72-7.127 2.504-16.114 5.822-21.318 14.363-5.2 13.507-22.675-5.822-23.016-20.173-.172-20.185 17.812-5.821 23.01 3.317 5.205 4.102 14.197 5.821 21.324z" style="fill:#000;fill-opacity:1;fill-rule:evenodd;stroke:#000;stroke-width:2.99999976;stroke-linecap:butt;stroke-linejoin:round;stroke-miterlimit:4;stroke-dasharray:none;stroke-opacity:1"/><path d="M1.49 304.753h599.074" style="fill:none;fill-rule:evenodd;stroke:#000;stroke-width:1px;stroke-linecap:butt;stroke-linejoin:miter;stroke-opacity:1"/><path style="opacity:1;fill:#e20909;fill-opacity:1;fill-rule:evenodd;stroke:none;stroke-width:15;stroke-linecap:round;stroke-linejoin:round;stroke-miterlimit:4;stroke-dasharray:none;stroke-dashoffset:0;stroke-opacity:1" d="M2.235 1.49h599.074v210.123H2.235z"/><path d="M187.605 26.589c-7.483 19.45.765 35.46 15.067 50.547 11.06 11.666 18.326 24.099 17.98 37.456a189.507 189.507 0 0 0-14.458 6.104L90.61 69.676l77.596 75.967a123.387 123.387 0 0 0-4.06 3.924c-22.01-6.589-42.67-7.895-62.357-5.364-27.831 3.577-51.46-.296-76.133-10.07 15.402 17.27 38.382 24.712 64.547 28.659 20.273 3.058 38.598 8.424 52.583 18.069-1.522 3.634-2.779 7.31-3.734 11.04L3.003 210.238l135.743 17.252 326.177 1.014 136.09-18.27-135.784-17.317a77.167 77.167 0 0 0-1.3-4.649c22.601-5.672 38.633-14.44 49.865-25.485 15.873-15.609 36.631-23.913 64.476-28.597-29.266-4.973-53.358.509-76.058 10.014-17.588 7.364-36.239 12.14-56.4 11.884-2.823-3.321-5.875-6.485-9.145-9.544l76.771-76.815-114.446 51.532a186.855 186.855 0 0 0-5.767-2.66c9.93-14.624 11.88-28.359 8.072-41.443-5.384-18.496.445-34.2 15.15-50.597-25.985 10.237-37.084 25.482-43.023 42.87-4.607 13.49-12.822 25.707-27.383 35-5.442-1.004-10.93-1.876-16.517-2.508l-27.49-90.444-26.057 90.24c-2.335.248-4.664.547-6.995.864-8.542-15.01-21.727-25.674-38.348-33.14-23.486-10.548-35.98-24.344-43.03-42.85z" style="color:#000;fill:#fff;fill-opacity:1;fill-rule:nonzero;stroke:#000;stroke-width:4.99999952;stroke-linecap:butt;stroke-linejoin:miter;marker:none;marker-start:none;marker-mid:none;marker-end:none;stroke-miterlimit:4;stroke-dasharray:none;stroke-dashoffset:0;stroke-opacity:1;visibility:visible;display:inline;overflow:visible"/><path style="opacity:1;fill:#5ab532;fill-opacity:1;fill-rule:evenodd;stroke:none;stroke-width:15;stroke-linecap:round;stroke-linejoin:round;stroke-miterlimit:4;stroke-dasharray:none;stroke-dashoffset:0;stroke-opacity:1" d="M1.49 213.849h598.329v92.395H1.49z"/><path d="m2.017 304.499 599.074.509" style="fill:none;fill-rule:evenodd;stroke:#000;stroke-width:15.00000381;stroke-linecap:butt;stroke-linejoin:miter;stroke-miterlimit:4;stroke-dasharray:none;stroke-opacity:1"/><path d="m2.235 216.575 599.075.509" style="opacity:1;fill:none;fill-rule:evenodd;stroke:#000;stroke-width:15.00000381;stroke-linecap:butt;stroke-linejoin:miter;stroke-miterlimit:4;stroke-dasharray:none;stroke-opacity:1;display:inline"/></g><g style="display:inline"><path d="M1.5 1.5v458.868c0 166.31 134.315 301.132 300 301.132s300-134.821 300-301.132V1.5H1.5z" style="fill:url(#b);fill-opacity:1"/></g><g style="display:inline"><path d="M1.5 1.5v458.868c0 166.31 134.315 301.132 300 301.132s300-134.821 300-301.132V1.5H1.5z" style="fill:none;fill-opacity:1;stroke:#000;stroke-width:3;stroke-miterlimit:4;stroke-dasharray:none;stroke-opacity:1"/></g></svg>
